assets/Violin/Flat/violin_flat.svg

<svg width="32" height="32" viewBox="0 0 32 32" fill="none" xmlns="http://www.w3.org/2000/svg">
<path d="M15.8002 23.6C15.0102 22.82 14.9502 21.55 15.7002 20.74C15.7202 20.72 15.7402 20.69 15.7602 20.67C15.7702 20.66 15.7802 20.65 15.7902 20.64C16.5002 19.95 17.6902 19.99 18.4002 20.68L18.4402 20.72C18.5902 20.87 18.8302 20.87 18.9802 20.72L21.2102 18.49C21.3502 18.3 21.5002 18.13 21.6602 17.96C21.8702 17.75 22.0502 17.53 22.2202 17.3C23.0502 16.15 22.8702 14.37 21.8602 13.37L18.5102 10.04C17.4802 9.01997 15.8602 8.85997 14.6802 9.68997C14.5702 9.76997 14.4702 9.86997 14.3702 9.94997L11.2802 13.04C11.1302 13.19 11.1302 13.44 11.2802 13.58C11.9702 14.26 12.0202 15.43 11.3602 16.14C11.3402 16.16 11.3202 16.18 11.3002 16.2C11.2802 16.22 11.2602 16.24 11.2302 16.26C10.4202 17.01 9.15016 16.96 8.37016 16.18C8.28016 16.09 8.09016 15.91 7.87016 15.68C7.59016 15.4 7.14016 15.4 6.86016 15.68L4.67016 17.87C4.67016 17.87 4.67016 17.87 4.66016 17.88L3.63016 18.92C3.23016 19.33 2.88016 19.77 2.60016 20.25C1.55016 22.02 1.92016 24.29 3.38016 25.74L6.33016 28.67C7.84016 30.17 10.2102 30.44 11.9902 29.27C12.3602 29.02 12.7202 28.73 13.0502 28.4L13.2802 28.17L14.1602 27.29C14.1702 27.28 14.1902 27.27 14.2002 27.26L16.3502 25.11C16.6302 24.83 16.6302 24.38 16.3502 24.1C16.3402 24.09 16.3302 24.08 16.3202 24.07C16.0702 23.88 15.8902 23.7 15.8002 23.6Z" fill="#8C5543"/>
<path d="M10.8002 23.22L8.8002 21.23C8.5202 20.95 8.0702 20.95 7.7902 21.23C7.5102 21.51 7.5102 21.96 7.7902 22.24L9.7902 24.23C10.0702 24.51 10.5202 24.51 10.8002 24.23C11.0802 23.95 11.0702 23.49 10.8002 23.22Z" fill="#F3C07B"/>
<path d="M24.5301 3.28C24.6137 3.28 24.6935 3.26399 24.7666 3.23488L25.252 3.73352L25.6084 3.38659L25.1212 2.88599C25.1527 2.81026 25.1701 2.72716 25.1701 2.64C25.1701 2.28654 24.8836 2 24.5301 2C24.1767 2 23.8901 2.28654 23.8901 2.64C23.8901 2.99346 24.1767 3.28 24.5301 3.28ZM23.6702 4.48996C23.7509 4.48996 23.8282 4.47499 23.8994 4.44768L24.382 4.94348L24.7384 4.59655L24.2581 4.10311C24.2916 4.02547 24.3102 3.93988 24.3102 3.84996C24.3102 3.4965 24.0236 3.20996 23.6702 3.20996C23.3167 3.20996 23.0302 3.4965 23.0302 3.84996C23.0302 4.20342 23.3167 4.48996 23.6702 4.48996ZM28.4395 6.32772L28.9233 6.8314C28.9938 6.80467 29.0703 6.79004 29.1501 6.79004C29.5036 6.79004 29.7901 7.07658 29.7901 7.43004C29.7901 7.7835 29.5036 8.07004 29.1501 8.07004C28.7967 8.07004 28.5101 7.7835 28.5101 7.43004C28.5101 7.3392 28.5291 7.25278 28.5632 7.17451L28.0808 6.67228L28.4395 6.32772ZM27.6833 7.65135L27.1995 7.14766L26.8408 7.49223L27.3232 7.99446C27.2891 8.07273 27.2701 8.15915 27.2701 8.24999C27.2701 8.60345 27.5567 8.88999 27.9101 8.88999C28.2636 8.88999 28.5501 8.60345 28.5501 8.24999C28.5501 7.89652 28.2636 7.60999 27.9101 7.60999C27.8303 7.60999 27.7538 7.62462 27.6833 7.65135ZM24.4402 5.73999L26.1602 7.43999L18.2902 16.19C18.0302 16.47 17.6002 16.49 17.3302 16.22L15.7302 14.64C15.4602 14.37 15.4702 13.93 15.7502 13.68L24.4402 5.73999ZM8.72017 25.21L6.81017 23.32C6.63017 23.14 6.34017 23.16 6.18017 23.36L3.78017 26.51C3.65017 26.68 3.67017 26.91 3.82017 27.06L5.02017 28.25C5.17017 28.4 5.41017 28.41 5.57017 28.28L8.69017 25.84C8.88017 25.68 8.90017 25.39 8.72017 25.21ZM12.3151 18.24C12.3201 18.2525 12.3251 18.265 12.3301 18.28C12.4301 18.55 12.3101 18.87 12.0501 19.01C11.7501 19.17 11.3801 19.07 11.2101 18.77C11.0801 18.54 11.1101 18.26 11.2701 18.07C11.0801 18 10.8501 18.01 10.6601 18.12L9.36014 18.85C8.68014 19.23 7.83014 18.99 7.45014 18.32L7.39014 18.22C7.38014 18.22 7.38014 18.21 7.38014 18.21C7.22014 17.92 7.32014 17.55 7.62014 17.38C7.92014 17.22 8.29014 17.32 8.46014 17.62C8.60014 17.86 8.55014 18.15 8.38014 18.34C8.58014 18.42 8.82014 18.42 9.03014 18.3L10.3301 17.57C11.0101 17.19 11.8601 17.43 12.2401 18.1L12.3001 18.2C12.3051 18.215 12.3101 18.2275 12.3151 18.24ZM13.7102 19.63C13.7252 19.635 13.7377 19.64 13.7502 19.645L13.7502 19.645C13.7627 19.65 13.7752 19.655 13.7902 19.66L13.8902 19.72C14.5702 20.09 14.8202 20.94 14.4602 21.62L13.7502 22.93C13.6402 23.14 13.6302 23.38 13.7202 23.58C13.9102 23.4 14.2002 23.36 14.4402 23.49C14.7402 23.65 14.8502 24.03 14.6902 24.33C14.5302 24.63 14.1602 24.74 13.8602 24.58C13.8602 24.58 13.8502 24.58 13.8502 24.57L13.7502 24.51C13.0702 24.14 12.8202 23.29 13.1802 22.61L13.8902 21.3C14.0002 21.1 14.0002 20.88 13.9302 20.69C13.7402 20.85 13.4702 20.89 13.2302 20.76C12.9302 20.6 12.8202 20.22 12.9802 19.92C13.1202 19.66 13.4302 19.54 13.7102 19.63Z" fill="#321B41"/>
<path d="M28.6901 4.58003L27.2901 3.19003C26.7301 2.63003 25.7901 2.72003 25.3501 3.39003L24.2201 5.08003C24.0701 5.31003 24.1001 5.61003 24.2901 5.81003L26.0901 7.59003C26.2901 7.78003 26.5901 7.81003 26.8201 7.66003L28.5001 6.52003C29.1601 6.07003 29.2501 5.14003 28.6901 4.58003Z" fill="#8C5543"/>
</svg>

<svg xmlns="http://www.w3.org/2000/svg" width="32" height="32" fill="none"><path fill="#8C5543" d="M15.8 23.6c-.79-.78-.85-2.05-.1-2.86.02-.02.04-.05.06-.07l.03-.03c.71-.69 1.9-.65 2.61.04l.04.04c.15.15.39.15.54 0l2.23-2.23c.14-.19.29-.36.45-.53.21-.21.39-.43.56-.66.83-1.15.65-2.93-.36-3.93l-3.35-3.33c-1.03-1.02-2.65-1.18-3.83-.35-.11.08-.21.18-.31.26l-3.09 3.09a.38.38 0 0 0 0 .54c.69.68.74 1.85.08 2.56l-.06.06c-.02.02-.04.04-.07.06-.81.75-2.08.7-2.86-.08-.09-.09-.28-.27-.5-.5a.712.712 0 0 0-1.01 0l-2.19 2.19-.01.01-1.03 1.04c-.4.41-.75.85-1.03 1.33-1.05 1.77-.68 4.04.78 5.49l2.95 2.93c1.51 1.5 3.88 1.77 5.66.6.37-.25.73-.54 1.06-.87l.23-.23.88-.88c.01-.01.03-.02.04-.03l2.15-2.15c.28-.28.28-.73 0-1.01l-.03-.03c-.25-.19-.43-.37-.52-.47Z"/><path fill="#F3C07B" d="m10.8 23.22-2-1.99a.712.712 0 0 0-1.01 0c-.28.28-.28.73 0 1.01l2 1.99c.28.28.73.28 1.01 0s.27-.74 0-1.01Z"/><path fill="#321B41" d="M24.53 3.28a.638.638 0 0 0 .237-.045l.485.499.356-.347-.487-.501a.64.64 0 1 0-.59.394Zm-.86 1.21c.08 0 .158-.015.23-.042l.482.495.356-.346-.48-.494a.64.64 0 1 0-.588.387Zm4.77 1.838.483.503a.639.639 0 0 1 .867.599.64.64 0 1 1-1.227-.255l-.482-.503.358-.344Zm-.757 1.323-.483-.503-.36.344.483.502a.638.638 0 0 0 .587.896.64.64 0 1 0-.227-1.239ZM24.44 5.74l1.72 1.7-7.87 8.75c-.26.28-.69.3-.96.03l-1.6-1.58a.662.662 0 0 1 .02-.96l8.69-7.94ZM8.72 25.21l-1.91-1.89a.42.42 0 0 0-.63.04l-2.4 3.15c-.13.17-.11.4.04.55l1.2 1.19c.15.15.39.16.55.03l3.12-2.44c.19-.16.21-.45.03-.63Zm3.595-6.97.015.04c.1.27-.02.59-.28.73a.622.622 0 0 1-.78-.94.73.73 0 0 0-.61.05l-1.3.73c-.68.38-1.53.14-1.91-.53l-.06-.1c-.01 0-.01-.01-.01-.01a.613.613 0 0 1 .24-.83.622.622 0 0 1 .76.96c.2.08.44.08.65-.04l1.3-.73c.68-.38 1.53-.14 1.91.53l.06.1.015.04Zm1.395 1.39.04.015.04.015.1.06c.68.37.93 1.22.57 1.9l-.71 1.31c-.11.21-.12.45-.03.65a.623.623 0 0 1 .97.75c-.16.3-.53.41-.83.25 0 0-.01 0-.01-.01l-.1-.06c-.68-.37-.93-1.22-.57-1.9l.71-1.31c.11-.2.11-.42.04-.61a.623.623 0 0 1-.95-.77c.14-.26.45-.38.73-.29Z"/><path fill="#8C5543" d="m28.69 4.58-1.4-1.39c-.56-.56-1.5-.47-1.94.2l-1.13 1.69a.59.59 0 0 0 .07.73l1.8 1.78c.2.19.5.22.73.07l1.68-1.14c.66-.45.75-1.38.19-1.94Z"/></svg>
